X:1
T:Title
%%score { ( 1 4 ) | ( 2 3 ) }
L:1/8
M:4/4
K:Eb
V:1 treble nm="Grand Piano"
V:4 treble 
V:2 bass 
V:3 bass 
V:1
 z4 z2 GF | E2 G2 [GB]2 [Ac]2 | [GB]6 GF | E2 G2 [GB]2 [Gc]2 | [DA]6 [DF][EG] | %5
 [FA]2 [GB]2 [Ac]2 [ce]2 | [Bd]6 [DF][EG] | [FA]2 [GB]2 [Ac]2 [Fd]2 | [GB]6 GF | %9
 E2 G2 [GB]2 [Ac]2 | [GB]6 G[GB] | [Ge]2 [Ge]2 [Ae]2 [EBd]2 | [EAc]6 [EAc][FBd] | %13
 [Ece]2 [Ece]2 [Bd]2 .[CAc]2 | [EGB]2 G4 GG | F2 e2 d2 c2 | %16
[M:9/8] B-[EB-][FB-] [GB-] [AB]2- [AB] z z |[M:4/4] GGGG G [GB]3 | [GB]2 [Gc]2 [B,DA]4 | %19
 [DFA][CFA][B,FA][CFA] [DFA] [Ac]3 | [Ac]2 [Ad]2 [GB]4 | G[FA][GB][Ac] [GB] [Ge]3 | F2 A2 c4 | %23
 Bcde f [=Ac]3 | [Ad]2 [AB]2 [Ge]4 |] %25
V:2
 z4 z2 [E,B,E][E,A,D] | [E,G,]2 [E,B,E]2 [E,E]2 [E,E]2 | [E,E]6 [E,B,E][E,A,D] | %3
 [E,G,]2 [E,B,E]2 [E,E]2 [E,E]2 | [F,B,]6 [B,,B,][B,,B,] | [B,,B,]2 [B,,B,]2 [B,,B,]2 [B,,B,]2 | %6
 [B,,B,]6 [B,,B,][B,,B,] | [B,,B,]2 [B,,B,]2 [B,,B,]2 [B,,B,]2 | [E,B,]6 [E,B,E][E,A,D] | %9
 [E,G,]2 [E,B,E]2 [E,E]2 [E,E]2 | [E,E]6 [E,E][E,E] | [E,B,]2 [E,B,]2 [F,B,]2 G,2 | A,6 A,A, | %13
 A,2 A,2 z B, z D | z2 [B,E]4 [=E,B,_D][E,B,D] | [F,B,D]2 [F,B,G]2 [F,=A,F]2 [F,A,E]2 | %16
[M:9/8] z CD E F2- F z z |[M:4/4] [E,E][E,DE][E,CE][E,B,E] [E,CE] [E,B,]3 | [E,E]2 [E,E]2 F,4 | %19
 B,,B,,B,,B,, B,, [B,,B,]3 | [B,,B,]2 [B,,B,]2 [E,B,]4 | [E,E][E,E][E,E][E,E] [E,E] [E,E]3 | %22
 [A,C]2 [A,CF]2 [A,EA]4 | [B,EG][B,EG][B,EG][B,EG] [CE=A][K:bass] [F,E]3 | [B,D]2 [B,D]2 [E,E]4 |] %25
V:3
 x8 | x8 | x8 | x8 | x8 | x8 | x8 | x8 | x8 | x8 | x8 | x8 | x8 | z4 A,2 A,2 | E,6 z2 | x8 | %16
[M:9/8] B,,6- B,, z z |[M:4/4] x8 | x8 | x8 | x8 | x8 | x8 | x5[K:bass] x3 | x8 |] %25
V:4
 x8 | x8 | x8 | x8 | x8 | x8 | x8 | x8 | x8 | x8 | x8 | x8 | x8 | x8 | x8 | x8 | %16
[M:9/8] .[B,D]3 z3 z3 |[M:4/4] x8 | x8 | x8 | x8 | x8 | x8 | x8 | x8 |] %25

